X: 24239
T: Lord Of Carnarvan's Jigg
R: barndance
M: 4/4
K: Gmajor
d/c/|:BG B/c/d/B/|cA A/B/c/d/|BG de/f/|1 g2 dd/c/:|2 g2 d||
e/f/|:g/f/e/d/ gB|AA cd/c/|B/c/d b>a|1 g2 d:|2 g2 dd/c/||

